icons/svg/tourist/plaque.svg

<?xml version="1.0" encoding="UTF-8" standalone="no"?>
<!-- Created with Inkscape (http://www.inkscape.org/) -->

<svg
   xmlns:dc="http://purl.org/dc/elements/1.1/"
   xmlns:cc="http://creativecommons.org/ns#"
   xmlns:rdf="http://www.w3.org/1999/02/22-rdf-syntax-ns#"
   xmlns:svg="http://www.w3.org/2000/svg"
   xmlns="http://www.w3.org/2000/svg"
   xmlns:sodipodi="http://sodipodi.sourceforge.net/DTD/sodipodi-0.dtd"
   xmlns:inkscape="http://www.inkscape.org/namespaces/inkscape"
   version="1.0"
   width="580"
   height="580"
   id="svg2"
   sodipodi:version="0.32"
   inkscape:version="0.91 r"
   sodipodi:docname="plaque.svg"
   inkscape:output_extension="org.inkscape.output.svg.inkscape">
  <metadata
     id="metadata2975">
    <rdf:RDF>
      <cc:Work
         rdf:about="">
        <dc:format>image/svg+xml</dc:format>
        <dc:type
           rdf:resource="http://purl.org/dc/dcmitype/StillImage" />
        <cc:license
           rdf:resource="http://web.resource.org/cc/PublicDomain" />
        <dc:language>en</dc:language>
        <dc:title />
      </cc:Work>
    </rdf:RDF>
  </metadata>
  <sodipodi:namedview
     inkscape:window-height="1004"
     inkscape:window-width="1920"
     inkscape:pageshadow="2"
     inkscape:pageopacity="0.0"
     guidetolerance="10.0"
     gridtolerance="10.0"
     objecttolerance="10.0"
     borderopacity="1.0"
     bordercolor="#666666"
     pagecolor="#ffffff"
     id="base"
     inkscape:zoom="0.46083856"
     inkscape:cx="252.96127"
     inkscape:cy="344.23372"
     inkscape:window-x="1680"
     inkscape:window-y="0"
     inkscape:current-layer="svg2"
     showgrid="false"
     inkscape:window-maximized="1" />
  <defs
     id="defs4">
    <inkscape:perspective
       sodipodi:type="inkscape:persp3d"
       inkscape:vp_x="0 : 290 : 1"
       inkscape:vp_y="0 : 1000 : 0"
       inkscape:vp_z="580 : 290 : 1"
       inkscape:persp3d-origin="290 : 193.33333 : 1"
       id="perspective2441" />
    <inkscape:perspective
       id="perspective3452"
       inkscape:persp3d-origin="30 : 20 : 1"
       inkscape:vp_z="60 : 30 : 1"
       inkscape:vp_y="0 : 1000 : 0"
       inkscape:vp_x="0 : 30 : 1"
       sodipodi:type="inkscape:persp3d" />
    <symbol
       viewBox="244.5 110 489 219.9"
       id="symbol-university">
      <path
         id="path4460"
         d="M79,43l57,119c0,0,21-96,104-96s124,106,124,106l43-133l82-17L0,17L79,43z" />
      <path
         id="path4462"
         d="M94,176l-21,39"
         stroke-width="20"
         stroke="#000000"
         fill="none" />
      <path
         id="path4464"
         d="M300,19c0,10.5-22.6,19-50.5,19S199,29.5,199,19s22.6-19,50.5-19S300,8.5,300,19z" />
      <path
         id="path4466"
         d="M112,216l-16-38L64,88c0,0-9-8-4-35s16-24,16-24"
         stroke-width="20"
         stroke="#000000"
         ill="none" />
    </symbol>
    <inkscape:perspective
       id="perspective4471"
       inkscape:persp3d-origin="372.04724 : 350.78739 : 1"
       inkscape:vp_z="744.09448 : 526.18109 : 1"
       inkscape:vp_y="0 : 1000 : 0"
       inkscape:vp_x="0 : 526.18109 : 1"
       sodipodi:type="inkscape:persp3d" />
    <inkscape:perspective
       id="perspective4668"
       inkscape:persp3d-origin="6 : 4 : 1"
       inkscape:vp_z="12 : 6 : 1"
       inkscape:vp_y="0 : 1000 : 0"
       inkscape:vp_x="0 : 6 : 1"
       sodipodi:type="inkscape:persp3d" />
    <inkscape:perspective
       id="perspective5915"
       inkscape:persp3d-origin="0.5 : 0.33333333 : 1"
       inkscape:vp_z="1 : 0.5 : 1"
       inkscape:vp_y="0 : 1000 : 0"
       inkscape:vp_x="0 : 0.5 : 1"
       sodipodi:type="inkscape:persp3d" />
  </defs>
  <g
     id="g1327">
    <path
       d="M 66.275,1.768 C 24.94,1.768 1.704,23.139 1.704,66.804 L 1.704,516.927 C 1.704,557.771 22.599,579.156 63.896,579.156 L 515.92,579.156 C 557.227,579.156 578.149,558.841 578.149,516.927 L 578.149,66.804 C 578.149,24.203 557.227,1.768 514.628,1.768 C 514.624,1.768 66.133,1.625 66.275,1.768 z"
       style="fill:#111111;stroke:#eeeeee;stroke-width:3.40799999"
       id="path1329" />
  </g>
  <path
     style="fill:#ffffff"
     d="m 144.35156,59.939453 c -25.05667,0 -45.371091,25.541081 -45.371091,57.046877 l 0,346.0293 c 0,31.50579 20.314421,57.04492 45.371091,57.04492 l 291.29883,0 c 25.05667,0 45.36914,-25.54022 45.36914,-57.04492 l 0,-346.0293 C 481.0204,85.480534 460.70706,59.939453 435.65039,59.939453 l -291.29883,0 z m 148.00977,35.728515 c 0.96895,-0.01977 1.99612,0.05859 3.26172,0.05859 4.49981,1.124943 5.625,3.515625 5.625,3.515625 0,0 5.62522,-1.265498 11.25,2.109373 5.62479,3.37487 5.625,9.14063 5.625,9.14063 0,0 4.3595,-0.21081 7.73437,3.16406 3.37544,3.37488 2.46094,7.94541 2.46094,10.19532 1.12496,2.24991 5.625,5.62522 5.625,11.25 0,5.62478 -2.46094,11.24804 -2.46094,11.24804 0,0 1.12497,5.62522 0,11.25 -1.12495,4.49981 -3.16406,5.48448 -3.16406,7.73438 -1.12157,2.24992 0.0703,4.71106 -1.05469,8.08594 -1.12496,2.2499 -3.44535,4.50004 -4.57031,5.625 -1.12158,1.12496 0.0703,5.4825 -1.05469,7.73242 -2.24991,4.49981 -5.83408,6.67969 -8.08398,6.67969 1.12496,5.62477 -0.91415,9.00009 -3.16407,11.25 0,5.62477 3.23261,7.9454 7.73243,10.19531 4.49982,1.12495 73.12304,15.8188 73.12304,27.06836 -35.05873,13.24301 -44.99804,28.76562 -44.99804,28.76562 l -112.4961,0 c 0,0 -13.28567,-19.78035 -44.99804,-28.76562 0,-14.62444 67.6388,-24.88873 71.01367,-26.01367 4.49983,-1.12497 8.78711,-4.42999 8.78711,-12.30469 -3.37487,-2.24992 -6.81826,-6.67991 -4.56836,-12.30469 -2.2499,0 -6.67969,-4.56856 -6.67969,-10.19336 -8.99965,-4.49981 -5.625,-12.30469 -5.625,-12.30469 0,0 -3.16406,-2.32039 -3.16406,-4.57031 -1.12495,-3.37486 0,-6.67969 0,-6.67969 0,0 -3.51563,-3.3048 -3.51563,-6.67968 -1.12496,-3.37486 0,-5.625 0,-5.625 0,0 -1.12496,-4.50004 0,-5.625 1.12496,-2.2499 4.57032,-5.62305 4.57032,-5.62305 0,0 -2.2499,-6.82043 0,-10.19531 2.24992,-5.62478 8.78906,-9.14063 8.78906,-9.14063 0,0 1.2657,-5.48446 3.51562,-7.73438 3.37486,-3.37487 4.63886,-3.51562 9.13867,-3.51562 1.12496,-3.37487 5.55473,-5.554736 6.67969,-6.67969 2.24989,-1.124954 7.94541,-1.124954 10.19531,0 1.12496,-0.562477 2.25006,-0.912113 3.51563,-1.052735 l -0.002,-0.002 c 0.31639,-0.03516 0.63404,-0.052 0.95703,-0.05859 z m -131.7461,216.128912 258.76954,0 0,21.91211 -258.76954,0 0,-21.91211 z m 0,63.26758 258.76954,0 0,21.91211 -258.76954,0 0,-21.91211 z m 0,63.26562 258.76954,0 0,21.91211 -258.76954,0 0,-21.91211 z"
     id="path9"
     inkscape:connector-curvature="0" />
</svg>

<svg width="580" height="580" viewBox="0 0 580 580" fill="none" xmlns="http://www.w3.org/2000/svg">
<g clip-path="url(#clip0)">
<path d="M66.2751 1.76815C24.9401 1.76815 1.7041 23.1391 1.7041 66.8041V516.927C1.7041 557.771 22.5991 579.156 63.8961 579.156H515.92C557.227 579.156 578.149 558.841 578.149 516.927V66.8041C578.149 24.2031 557.227 1.76815 514.628 1.76815C514.624 1.76815 66.1331 1.62515 66.2751 1.76815Z" fill="#111111" stroke="#EEEEEE" stroke-width="3.408"/>
<path d="M144.352 59.9395C119.295 59.9395 98.9805 85.4805 98.9805 116.986V463.016C98.9805 494.521 119.295 520.061 144.352 520.061H435.65C460.707 520.061 481.02 494.52 481.02 463.016V116.986C481.02 85.4805 460.707 59.9395 435.65 59.9395H144.352ZM292.361 95.668C293.33 95.6482 294.357 95.7266 295.623 95.7266C300.123 96.8515 301.248 99.2422 301.248 99.2422C301.248 99.2422 306.873 97.9767 312.498 101.352C318.123 104.726 318.123 110.492 318.123 110.492C318.123 110.492 322.483 110.281 325.857 113.656C329.233 117.031 328.318 121.602 328.318 123.852C329.443 126.101 333.943 129.477 333.943 135.102C333.943 140.726 331.482 146.35 331.482 146.35C331.482 146.35 332.607 151.975 331.482 157.6C330.357 162.099 328.318 163.084 328.318 165.334C327.197 167.584 328.389 170.045 327.264 173.42C326.139 175.67 323.818 177.92 322.693 179.045C321.572 180.17 322.764 184.527 321.639 186.777C319.389 191.277 315.805 193.457 313.555 193.457C314.68 199.082 312.641 202.457 310.391 204.707C310.391 210.332 313.623 212.652 318.123 214.902C322.623 216.027 391.246 230.721 391.246 241.971C356.187 255.214 346.248 270.736 346.248 270.736H233.752C233.752 270.736 220.466 250.956 188.754 241.971C188.754 227.346 256.393 217.082 259.768 215.957C264.267 214.832 268.555 211.527 268.555 203.652C265.18 201.402 261.736 196.972 263.986 191.348C261.736 191.348 257.307 186.779 257.307 181.154C248.307 176.654 251.682 168.85 251.682 168.85C251.682 168.85 248.518 166.529 248.518 164.279C247.393 160.904 248.518 157.6 248.518 157.6C248.518 157.6 245.002 154.295 245.002 150.92C243.877 147.545 245.002 145.295 245.002 145.295C245.002 145.295 243.877 140.795 245.002 139.67C246.127 137.42 249.572 134.047 249.572 134.047C249.572 134.047 247.322 127.226 249.572 123.852C251.822 118.227 258.361 114.711 258.361 114.711C258.361 114.711 259.627 109.226 261.877 106.977C265.252 103.602 266.516 103.461 271.016 103.461C272.141 100.086 276.57 97.9062 277.695 96.7812C279.945 95.6563 285.641 95.6563 287.891 96.7812C289.016 96.2188 290.141 95.8691 291.406 95.7285L291.404 95.7265C291.721 95.6913 292.038 95.6745 292.361 95.6679L292.361 95.668ZM160.615 311.797H419.385V333.709H160.615V311.797ZM160.615 375.064H419.385V396.977H160.615V375.064ZM160.615 438.33H419.385V460.242H160.615V438.33Z" fill="white"/>
</g>
<defs>
<clipPath id="clip0">
<path d="M0 0H580V580H0V0Z" fill="white"/>
</clipPath>
</defs>
</svg>
